X:8
T:Basso, Secondo Coro, Canzon septimi toni a 8, from Sacrae Symphoniae (1597)
C:Giovanni Gabrielli (1557-1612)
%%MIDI nobarlines
%%MIDI ratio 3 1
M:4/2
L:1/2
K:C bass
z2g/g/e/c/ |gzz2 |z/g/e/c/d/B/c/d/ |G3/2G/c//c//c//c//c/c/ |
fd^cd |A6 d2 |
M:3/2
L:1/2
z3 |z3 |z3 |gge |
%d>dA |d/e/f/g/a |d2z2 |ddg |c2c |f3 |dA2 |
d>dA |d/e/f/g/a |d2z |ddg |c2c |f3 |dA2 |
M:4/2
L:1/2
d2z2 |zdgg |cc'f>g |aAe3 ea2 |
d'd'/d'/g/>g/a/>a/ |d2A2 |z2z/a/>a/a/ |eeAz |
z4 |z2z/a/>a/a/ |d'/d'/^c'/d'/g/=c'/b/c'/ |f/_b/a/b/ga |
d2zz/g/ |g/g/c'3/2a/a/a/ |d'dg>f |e>dcc |
G2c2 |z4 |zz/c/f/d/c |zz/c'/a/f/c' |z4 |
z2zz/g/ |c'/>c'/b/g/a/>a/g/e/ |f/>f/ed2 |zgc2 |
g2d4 G2 |z4 |z4 |z4 |z4 |z2zz/a/ |^g/a/f//d//f//=g//az |
z/a/eaz |z/e/^g/a/e2 |B4 |
M:3/2
L:1/2
e3 |z3 |z3 |aaf |
g>ge |ffd |e>ec |ddB |c/B/c/d/e |ee2 |
M:4/2
L:1/2
A2dd/d/ |
_BdA2 |z4 |z/a/_b/>g/a/>=b/c' |fzz/a/_b |
a2A2 |Hd2 g/g/e/c/ |gzz/g/e/c/ |d/B/c/d/Gz |
zz/d/g//g//g//g//g/g/ |c3/2c'/f//f//f//f//f/d/ |a3/2d/a6 |
dGd2 |d2G2 |zgc//d//e//f//g//a//b//g// |c'gc2 |HG4 |]
